src/24/actions/format-node-smooth.svg

<svg xmlns="http://www.w3.org/2000/svg" viewBox="0 0 24 24"><path d="M4 10v3h3v-1h1v-1H7v-1H4zm13 0v1h-5v1h5v1h3v-3h-3zM5 11h1v1H5v-1zm13 0h1v1h-1v-1z" fill="currentColor" color="#5d656b"/><path d="M8 9v4h4V9H8zm1 1h2v2H9v-2z" fill="currentColor" color="#3daee9"/></svg>

<svg xmlns="http://www.w3.org/2000/svg" viewBox="0 0 24 24">
  <defs id="defs3051">
    <style type="text/css" id="current-color-scheme">
      .ColorScheme-Text {
        color:#5d656b;
      }
      .ColorScheme-Highlight {
        color:#3daee9;
      }
      </style>
  </defs>
 <path 
     style="fill:currentColor;fill-opacity:1;stroke:none" 
     d="M 4 10 L 4 13 L 7 13 L 7 12 L 8 12 L 8 11 L 7 11 L 7 10 L 4 10 z M 17 10 L 17 11 L 12 11 L 12 12 L 17 12 L 17 13 L 20 13 L 20 10 L 17 10 z M 5 11 L 6 11 L 6 12 L 5 12 L 5 11 z M 18 11 L 19 11 L 19 12 L 18 12 L 18 11 z "
     class="ColorScheme-Text"
     />
 <path 
     style="fill:currentColor;fill-opacity:1;stroke:none" 
     d="M 8 9 L 8 13 L 12 13 L 12 9 L 8 9 z M 9 10 L 11 10 L 11 12 L 9 12 L 9 10 z "
     class="ColorScheme-Highlight"
     />
</svg>
